img/steemit.svg

<svg width="24" height="24" viewBox="0 0 24 24" fill="none" xmlns="http://www.w3.org/2000/svg">
<path d="M13.8752 9.07497C12.6002 8.92497 11.3252 9.37497 10.4252 10.2C9.15019 11.4 8.8502 13.275 9.6002 14.85C9.7502 15.075 9.7502 15.375 9.6002 15.6C9.4502 16.05 9.0752 16.5 8.7002 16.875C9.4502 17.175 10.1252 17.4 11.1752 17.55C11.8502 17.625 12.6002 17.625 13.2752 17.55C14.2502 17.475 15.4502 16.95 16.2752 16.2C17.9252 14.625 18.0002 11.925 16.3502 10.275C15.6752 9.59997 14.7752 9.22497 13.8752 9.07497Z" fill="#848E9C"/>
<path d="M12 0C5.4 0 0 5.4 0 12C0 18.6 5.4 24 12 24C18.6 24 24 18.6 24 12C24 5.4 18.6 0 12 0ZM17.25 17.1C16.2 18.075 14.85 18.825 13.5 18.9C12.675 18.975 11.85 18.975 11.025 18.9C8.175 18.525 6 17.175 6 17.175C6 17.175 7.65 16.8 8.175 15.525C8.175 15.525 8.175 15.525 8.175 15.45C7.8 15.225 7.425 15 7.05 14.7C4.8 12.75 4.5 9.45 6.45 7.2C7.35 6.15 8.625 5.4 9.9 5.175C13.8 4.425 17.25 6.225 17.25 6.225C17.25 6.225 15.75 6.675 15.3 7.875C16.05 8.175 16.725 8.55 17.325 9.15C19.5 11.4 19.425 14.925 17.25 17.1Z" fill="#848E9C"/>
</svg>

<svg width="24" height="24" fill="none" xmlns="http://www.w3.org/2000/svg"><path d="M13.875 9.075c-1.275-.15-2.55.3-3.45 1.125-1.275 1.2-1.575 3.075-.825 4.65.15.225.15.525 0 .75-.15.45-.525.9-.9 1.275.75.3 1.425.525 2.475.675a9.828 9.828 0 0 0 2.1 0c.975-.075 2.175-.6 3-1.35 1.65-1.575 1.725-4.275.075-5.925-.675-.675-1.575-1.05-2.475-1.2z" fill="#848E9C"/><path d="M12 0C5.4 0 0 5.4 0 12s5.4 12 12 12 12-5.4 12-12S18.6 0 12 0zm5.25 17.1c-1.05.975-2.4 1.725-3.75 1.8a13.64 13.64 0 0 1-2.475 0C8.175 18.525 6 17.175 6 17.175s1.65-.375 2.175-1.65v-.075c-.375-.225-.75-.45-1.125-.75-2.25-1.95-2.55-5.25-.6-7.5.9-1.05 2.175-1.8 3.45-2.025 3.9-.75 7.35 1.05 7.35 1.05s-1.5.45-1.95 1.65c.75.3 1.425.675 2.025 1.275a5.659 5.659 0 0 1-.075 7.95z" fill="#848E9C"/></svg>
